static/assets/images/icons/x.svg

<svg width="256" height="256" viewBox="0 0 256 256" fill="none" xmlns="http://www.w3.org/2000/svg">
<path d="M89.8182 32H23L101.845 137.744L27.2955 224H52.5909L113.567 153.45L166.182 224H233L150.833 113.811L221.545 32H196.25L139.111 98.1056L89.8182 32ZM175.727 204.8L61.1818 51.2H80.2727L194.818 204.8H175.727Z" fill="black"/>
</svg>

<svg xmlns="http://www.w3.org/2000/svg" fill="none" viewBox="0 0 256 256"><path fill="#000" d="M89.818 32H23l78.845 105.744L27.295 224h25.296l60.976-70.55L166.182 224H233l-82.167-110.189L221.545 32H196.25l-57.139 66.106zm85.909 172.8L61.182 51.2h19.09l114.546 153.6z"/></svg>
